X:3004
T:March
C:anon.
O:Sweden
R:March
Z:Transcribed by Frank Nordberg - http://www.musicaviva.com
F:http://abc.musicaviva.com/tunes/sweden/march-sweden.abc
M:C
L:1/8
K:G
"G"B2B>B Bd"D7"cA|"G"G4D2G2|"G"G>F G>A B>c d>B|"D"A2A>AA2d>c|
"G"B4Bc/d/ "D7"ef|"G"g4"D"f4|"A7"e>f g>e d2^c2|"D"d2d>dd2 z2|
|:"G"d2d>d dc/d/ ed|"D7"c4A4|"D7"c2c>c cB/c/ dc|"G"B4G4|
"Am"e2e>e"D7"f2f>f|"G"g2g>g"C"g2e2|"G"dg"C"ec"G"B2"D7"A2|[1"G"G2G>G GDGB:|[2"G"G2G>GG2 z2|]
W:
W:
W:  From Musica Viva - http://www.musicaviva.com
W:  the Internet center for free sheet music downloads.
